X: 1
T: UPSTAIRS DOWNSTAIRS
O: Joe Yates Sofala NSW
R: jig
Z: 2014 John Chambers <jc:trillian.mit.edu>
N: In a set for Farmers Jig
S: http://www.kangaroovalleyfolkfestival.com.au/USERIMAGES/Bush%20Dance%2014-05-03.pdf
N: In a set for Circassian Circle
M: 6/8
L: 1/8
K: G
e2 |:\
"G"dBG BGB | dBG {A}G2e | dBG BGB | "D7"A>BA A2e |\
"G"dBG BGB | dBG "C"c2d | "Am"ecc "D7"def | "G"gGG {A}G2e :|
|:\
"G"{a}gfe dcB | "D7"{d}cBA "G"G2G | "Am"EFG ABc | "D7"edd d2(e/f/) |\
"G"{a}gfe dcB | "D7"{d}cBA "G"G2G | "Am"EFG ABc | "D7"def [1 "G"g2g :|[2 "G"g2 |]
